public/images/technologies/bigdata/overview/icon_0.svg

<svg width="66" height="66" viewBox="0 0 66 66" fill="none" xmlns="http://www.w3.org/2000/svg">
<rect x="0.5" y="0.687012" width="65" height="65" rx="8" fill="url(#paint0_linear_37_12726)"/>
<path fill-rule="evenodd" clip-rule="evenodd" d="M18.8593 12.885L18.6613 13.0829V15.4656V17.8483H17.4601C16.4883 17.8483 16.161 17.8789 15.7464 18.0082C14.7931 18.3058 13.9575 19.1414 13.6599 20.0947C13.5038 20.5951 13.5 20.8631 13.5 31.3967C13.5 41.9302 13.5038 42.1983 13.6599 42.6987C13.9575 43.6519 14.7931 44.4876 15.7464 44.7852C16.234 44.9373 16.4986 44.9451 21.202 44.9451H26.1451L26.5695 45.4088C27.4073 46.324 27.8187 47.6259 27.6273 48.7556C27.496 49.5298 27.0915 50.3628 26.5695 50.933L26.1451 51.3967H23.0484H19.9516V52.0419V52.687H33.5H47.0484V52.0419V51.3967H43.9546H40.8608L40.4967 51.0074C40.0391 50.5182 39.786 50.1171 39.5469 49.5015C39.2768 48.8068 39.2768 47.535 39.5469 46.8402C39.786 46.2247 40.0391 45.8235 40.4967 45.3344L40.8608 44.9451H45.801C50.5014 44.9451 50.766 44.9373 51.2536 44.7852C52.2069 44.4876 53.0425 43.6519 53.3401 42.6987C53.4962 42.1983 53.5 41.9302 53.5 31.3967C53.5 20.8631 53.4962 20.5951 53.3401 20.0947C53.0425 19.1414 52.2069 18.3058 51.2536 18.0082C50.839 17.8789 50.5117 17.8483 49.5399 17.8483H48.3387V15.4656V13.0829L48.1407 12.885L47.9428 12.687H33.5H19.0572L18.8593 12.885ZM47.0484 23.0096V32.0418H33.5H19.9516V23.0096V13.9773H33.5H47.0484V23.0096ZM21.4399 15.4656L21.2419 15.6635V17.7237V19.7838H21.8871H22.5323V18.1709V16.558H24.1452H25.7581V15.9128V15.2677H23.698H21.6378L21.4399 15.4656ZM41.2419 15.9128V16.558H42.8548H44.4677V18.1709V19.7838H45.1129H45.7581V17.7237V15.6635L45.5601 15.4656L45.3622 15.2677H43.302H41.2419V15.9128ZM32.129 17.8989C28.8694 18.3114 26.1748 19.6658 23.8427 22.0638C22.95 22.9819 22.95 23.0373 23.8427 23.9554C25.9466 26.1187 28.3283 27.4224 31.2016 27.9835C32.2435 28.1869 34.6949 28.1856 35.7984 27.981C38.6642 27.4498 41.156 26.0626 43.3185 23.7942C44.0751 23.0006 44.0657 22.9617 42.8311 21.7596C41.6245 20.5848 40.6291 19.8617 39.3468 19.2285C37.4599 18.2966 35.9767 17.938 33.8226 17.8927C33.0464 17.8764 32.2843 17.8792 32.129 17.8989ZM18.6613 26.0374V32.9363L18.8593 33.1342L19.0572 33.3322H33.5H47.9428L48.1407 33.1342L48.3387 32.9363V26.0302V19.1242L49.5685 19.1529C50.6374 19.1779 50.8406 19.2043 51.121 19.3544C51.4978 19.5561 51.8081 19.8717 52.019 20.2677C52.1627 20.5375 52.1703 20.9455 52.1909 29.5217L52.2124 38.4935H33.5H14.7876L14.8091 29.5217C14.8297 20.9455 14.8373 20.5375 14.981 20.2677C15.2634 19.7375 15.6883 19.3823 16.2415 19.2139C16.3526 19.1802 16.9426 19.1494 17.5524 19.1456L18.6613 19.1386V26.0374ZM34.3685 19.2602C35.1073 19.4344 35.6495 19.7408 36.2054 20.2982C37.7423 21.8395 37.7372 24.1848 36.1935 25.7327C35.5985 26.3296 34.9373 26.6685 34.0847 26.8138C31.5833 27.24 29.2732 24.9306 29.6945 22.4249C30.0685 20.2005 32.2091 18.7511 34.3685 19.2602ZM28.9806 20.5368C28.1357 22.1031 28.1357 23.9161 28.9806 25.4823C29.1561 25.8078 29.2782 26.0741 29.2519 26.0741C29.2256 26.0741 28.8568 25.9095 28.4322 25.7084C27.371 25.2057 26.2514 24.4417 25.4355 23.6635L24.75 23.0096L25.4355 22.3557C26.2456 21.583 27.3602 20.8206 28.4208 20.3138C28.8414 20.1128 29.2112 19.9477 29.2427 19.9467C29.274 19.9458 29.1561 20.2114 28.9806 20.5368ZM38.5678 20.3108C39.629 20.8135 40.7486 21.5775 41.5645 22.3557L42.25 23.0096L41.5645 23.6635C40.7486 24.4417 39.629 25.2057 38.5678 25.7084C38.1432 25.9095 37.7772 26.0741 37.7544 26.0741C37.7316 26.0741 37.8731 25.7566 38.069 25.3685C38.2647 24.9804 38.4774 24.4088 38.5417 24.0983C38.7902 22.8975 38.6363 21.7754 38.069 20.6507C37.8731 20.2627 37.7316 19.9451 37.7544 19.9451C37.7772 19.9451 38.1432 20.1097 38.5678 20.3108ZM32.7255 20.5385C30.8893 21.14 30.3238 23.4667 31.6834 24.8262C32.2185 25.3613 32.6919 25.5499 33.5 25.5499C34.0643 25.5499 34.2565 25.515 34.5866 25.3525C35.0982 25.1008 35.5912 24.6078 35.8429 24.0962C36.1264 23.5202 36.1264 22.499 35.8429 21.923C35.5882 21.4055 35.0438 20.8639 34.5642 20.6514C34.0944 20.4431 33.1869 20.3873 32.7255 20.5385ZM34.0676 21.9007C34.4549 22.096 34.7903 22.6106 34.7903 23.0096C34.7903 23.1239 34.7087 23.3793 34.6089 23.5772C34.4135 23.9645 33.899 24.2999 33.5 24.2999C33.3857 24.2999 33.1303 24.2183 32.9324 24.1185C32.5451 23.9231 32.2097 23.4085 32.2097 23.0096C32.2097 22.6106 32.5451 22.096 32.9324 21.9007C33.1303 21.801 33.3857 21.7193 33.5 21.7193C33.6143 21.7193 33.8697 21.801 34.0676 21.9007ZM21.2419 28.2955V30.3556L21.4399 30.5535L21.6378 30.7515H23.698H25.7581V30.1064V29.4612H24.1452H22.5323V27.8483V26.2354H21.8871H21.2419V28.2955ZM44.4677 27.8483V29.4612H42.8548H41.2419V30.1064V30.7515H43.302H45.3622L45.5601 30.5535L45.7581 30.3556V28.2955V26.2354H45.1129H44.4677V27.8483ZM52.1956 41.0136C52.1724 42.0168 52.1397 42.2955 52.0179 42.5257C51.8096 42.9198 51.4992 43.2363 51.121 43.4404L50.7984 43.6144H33.5H16.2016L15.879 43.4404C15.5008 43.2363 15.1904 42.9198 14.9821 42.5257C14.8603 42.2955 14.8276 42.0168 14.8044 41.0136L14.7759 39.7838H33.5H52.2241L52.1956 41.0136ZM49.629 41.7193V42.3644H50.2742H50.9194V41.7193V41.0741H50.2742H49.629V41.7193ZM38.8612 45.2878C37.7388 47.0987 37.7388 49.2431 38.8612 51.0539L39.0736 51.3967H33.5H27.9264L28.1389 51.0539C28.4716 50.5171 28.6537 50.0813 28.8252 49.4106C29.1724 48.0531 28.9224 46.5518 28.1389 45.2878L27.9264 44.9451H33.5H39.0736L38.8612 45.2878Z" fill="white"/>
<defs>
<linearGradient id="paint0_linear_37_12726" x1="0.5" y1="34.0654" x2="65.5" y2="34.0654" gradientUnits="userSpaceOnUse">
<stop stop-color="#00469F"/>
<stop offset="1" stop-color="#1E79D6"/>
</linearGradient>
</defs>
</svg>

<svg xmlns="http://www.w3.org/2000/svg" width="66" height="66" fill="none" xmlns:v="https://vecta.io/nano"><rect x=".5" y=".687" width="65" height="65" rx="8" fill="url(#A)"/><path fill-rule="evenodd" d="M18.859 12.885l-.198.198v2.383 2.383H17.46c-.972 0-1.299.031-1.714.16-.953.298-1.789 1.133-2.086 2.087-.156.5-.16.768-.16 11.302l.16 11.302c.298.953 1.133 1.789 2.086 2.087.488.152.752.16 5.456.16h4.943l.424.464c.838.915 1.249 2.217 1.058 3.347-.131.774-.536 1.607-1.058 2.177l-.424.464h-3.097-3.097v.645.645H33.5h13.548v-.645-.645h-3.094-3.094l-.364-.389c-.458-.489-.711-.89-.95-1.506-.27-.695-.27-1.967 0-2.661.239-.616.492-1.017.95-1.506l.364-.389h4.94c4.7 0 4.965-.008 5.453-.16.953-.298 1.789-1.133 2.087-2.087.156-.5.16-.769.16-11.302l-.16-11.302c-.298-.953-1.133-1.789-2.087-2.087-.415-.129-.742-.16-1.714-.16h-1.201v-2.383-2.383l-.198-.198-.198-.198H33.5 19.057l-.198.198zM47.048 23.01v9.032H33.5 19.952V23.01v-9.032H33.5h13.548v9.032zM21.44 15.466l-.198.198v2.06 2.06h.645.645v-1.613-1.613h1.613 1.613v-.645-.645h-2.06-2.06l-.198.198zm19.802.447v.645h1.613 1.613v1.613 1.613h.645.645v-2.06-2.06l-.198-.198-.198-.198h-2.06-2.06v.645zm-9.113 1.986c-3.26.412-5.954 1.767-8.286 4.165-.893.918-.893.973 0 1.892 2.104 2.163 4.486 3.467 7.359 4.028 1.042.203 3.493.202 4.597-.002 2.866-.531 5.358-1.918 7.52-4.187.757-.794.747-.832-.487-2.035-1.207-1.175-2.202-1.898-3.484-2.531-1.887-.932-3.37-1.291-5.524-1.336-.776-.016-1.538-.014-1.694.006zm-13.468 8.139v6.899l.198.198.198.198H33.5h14.443l.198-.198.198-.198V26.03v-6.906l1.23.029c1.069.025 1.272.051 1.553.201.377.202.687.517.898.913.144.27.151.678.172 9.254l.022 8.972H33.5 14.788l.022-8.972c.021-8.576.028-8.984.172-9.254.282-.53.707-.885 1.26-1.054.111-.034.701-.064 1.311-.068l1.109-.007v6.899zm15.707-6.777a3.58 3.58 0 0 1 1.837 1.038c1.537 1.541 1.532 3.887-.012 5.435a3.7 3.7 0 0 1-2.109 1.081c-2.501.426-4.811-1.883-4.39-4.389.374-2.224 2.515-3.674 4.674-3.165zm-5.388 1.277a5.14 5.14 0 0 0 0 4.945c.175.326.298.592.271.592s-.395-.165-.82-.366c-1.061-.503-2.181-1.267-2.997-2.045l-.686-.654.686-.654a12.15 12.15 0 0 1 2.985-2.042c.421-.201.79-.366.822-.367s-.087.265-.262.59zm9.587-.226c1.061.503 2.181 1.267 2.997 2.045l.685.654-.685.654c-.816.778-1.936 1.542-2.997 2.045-.425.201-.791.366-.813.366s.119-.318.315-.706.408-.96.473-1.27c.248-1.201.095-2.323-.473-3.448-.196-.388-.337-.706-.315-.706s.389.165.813.366zm-5.842.228c-1.836.602-2.402 2.928-1.042 4.288.535.535 1.008.724 1.817.724.564 0 .757-.035 1.087-.197.512-.252 1.005-.745 1.256-1.256.283-.576.283-1.597 0-2.173-.255-.517-.799-1.059-1.279-1.272-.47-.208-1.377-.264-1.839-.113zm1.342 1.362c.387.195.723.71.723 1.109 0 .114-.082.37-.181.568-.195.387-.71.723-1.109.723-.114 0-.37-.082-.568-.181-.387-.195-.723-.71-.723-1.109s.335-.914.723-1.109c.198-.1.453-.181.568-.181s.37.082.568.181zm-12.826 6.395v2.06l.198.198.198.198h2.06 2.06v-.645-.645h-1.613-1.613v-1.613-1.613h-.645-.645v2.06zm23.226-.447v1.613h-1.613-1.613v.645.645h2.06 2.06l.198-.198.198-.198v-2.06-2.06h-.645-.645v1.613zm7.728 13.165c-.023 1.003-.056 1.282-.178 1.512a2.2 2.2 0 0 1-.897.915l-.323.174H33.5 16.202l-.323-.174a2.2 2.2 0 0 1-.897-.915c-.122-.23-.155-.509-.178-1.512l-.028-1.23H33.5h18.724l-.029 1.23zm-2.567.706v.645h.645.645v-.645-.645h-.645-.645v.645zm-10.768 3.569c-1.122 1.811-1.122 3.955 0 5.766l.212.343H33.5h-5.574l.212-.343a5.31 5.31 0 0 0 .686-1.643c.347-1.358.097-2.859-.686-4.123l-.212-.343H33.5h5.574l-.212.343z" fill="#fff"/><defs><linearGradient id="A" x1=".5" y1="34.065" x2="65.5" y2="34.065" gradientUnits="userSpaceOnUse"><stop stop-color="#00469f"/><stop offset="1" stop-color="#1e79d6"/></linearGradient></defs></svg>
